static/theme-assets/jobs/melee/viper/viper.svg

<?xml version="1.0" encoding="UTF-8"?>
<svg id="Layer_1" data-name="Layer 1" xmlns="http://www.w3.org/2000/svg" version="1.1" viewBox="0 0 97 121">
  <defs>
    <style>
      .cls-1 {
        fill: #ffffff;
      }

      .cls-1, .cls-2, .cls-3 {
        stroke-width: 0px;
      }

      .cls-2 {
        fill: #ffffff;
      }

      .cls-3 {
        fill: #ffffff;
      }
    </style>
  </defs>
  <path class="cls-2" d="M79.23,83.24c-1.4,10.82-3.55,21.4-10.4,30.34-.75.98-1.54,2.84-2.91,2.24-1.54-.67-.26-2.37-.12-3.57,2.01-17.26,3.54-34.47-3.36-51.14,1.45-2.37,1.61-4.88.87-7.52-.84-3.04.01-4.82,3.53-4.45,1.69,7.59,6.11,14.57,5.19,22.76-3.86-2.5-2.35,5.53-.65,7.12,3.43,3.21.83,1.33,4.65.3,1.25.34,2.49.68,3.74,1.02,0,.47,0,.94-.01,1.41-.17.5-.35.99-.52,1.49Z"/>
  <path class="cls-2" d="M31.34,93.12c.14,1.33.29,2.65.43,3.98-.16.29-.12.55.11.79.64,5.76,2.34,12.33,1.4,18.08-13.96-8.3-15.04-38.74-18.17-52.91.25-1.95.51-3.9.76-5.86,3.47,2.09,4.67-.34,5.81-2.9,3.61,5.69,3.08,11.97,2.62,18.25-3.96-.3-2.47,2.55-1.72,3.81,1.06,1.79-.66,6.73,4.46,4.63,1.3,1.06,2.6,2.12,3.9,3.18.03.9.06,1.8.09,2.7.05,1.08.11,2.16.16,3.24.02.6.05,1.19.07,1.79.02.41.05.82.07,1.23Z"/>
  <path class="cls-2" d="M74.46,23.97c3.47-4.23,5.09-9.18,5.66-14.54,1.56,10.28,4.78,17.91,6,3.35,4.26,5.65,6.11,12.19,7.04,19.07.12.45.24.9.36,1.35.04,1.21.08,2.42.12,3.63-3.29,3.79-2.59,9.3-5.68,13.18-1.85.82-3.67,1.85-5.75.68,5.63-2.8,4.32-27.7-3.31-20l-1.94-3.69c.62-2.21-.96-2.61-2.5-3.04Z"/>
  <path class="cls-3" d="M30.95,84.17c-1.3-1.06-2.6-2.12-3.9-3.18.13-.65.26-1.3.39-1.94.08-.41.16-.81.25-1.22-.05-.61-.11-1.22-.16-1.83,2.68-5.72,2.43-11.85,2.5-17.94.78-2.85,1.57-5.7,2.35-8.55,2.04-7.47.05-11.84-6.6-14.47,1.97-.29,3.1-1.72,4.26-3.11,1.23.27,2.47.54,3.7.82,2.27.85,3.45,2.63,4.28,4.8.35.92.9,2.6,2.04.41,1.79,5.63.99,11.1-.72,16.61-3.05,9.79-7.71,19.13-8.38,29.6ZM32.8,59.85c.72-.5,4.18-7.88,2.38-7.54-2.06.38-4.36,6.12-2.38,7.54Z"/>
  <path class="cls-3" d="M76.95,27.01c.65,1.23,1.29,2.46,1.94,3.7-2.06,5.09-7.77,3-10.53,6.78-2.32,3.18-1.49,8.03-1.52,11.66-3.51-.37-4.37,1.42-3.53,4.45.74,2.65.57,5.15-.87,7.52-5.94-9.78-4.61-20.06-2.07-30.42,6.28,2.14,11.86,1.15,16.58-3.69Z"/>
  <path class="cls-3" d="M87.95,50.02c3.09-3.88,2.39-9.39,5.68-13.18.7,6.98.89,19.56-3.68,24.38-1.46,1.54-3.28-.61-5.66,2.41-2.75,3.47-3.36,12.4-4.52,16.71-1.25-.34-2.49-.68-3.74-1.02.39-1.42.78-2.85,1.16-4.27,1.02-1.3.92-2.78.55-4.24-1.32-5.14-1.4-9.97,3.24-13.7,3.19-1.52,7.53-1.89,6.97-7.09Z"/>
  <path class="cls-2" d="M5.87,34.08c.24-8.4,3.53-15.69,8.09-22.54.02,3.3.05,6.6.07,9.91-3.16,6.22-3.32,12.94-3.23,19.7.03,2.21.21,4.38,2.95,5.01.71,1.41,1.42,2.82,2.14,4.23-1.9,1.85-3.36.25-4.91-.63-2.87-2.4-1.85-5.71-1.9-8.7-.05-2.89-.14-5.57-3.22-6.98Z"/>
  <path class="cls-3" d="M5.87,34.08c3.08,1.41,3.18,4.09,3.22,6.98.05,2.99-.97,6.3,1.9,8.7-1.15,4.31,2.97,5.16,4.89,7.45-.25,1.95-.51,3.9-.76,5.86-2.76-3.05-5.6-1.24-7.6-3.89-3.52-4.68-2.81-19.71-1.64-25.09Z"/>
  <path class="cls-1" d="M33.73,32.75c-1.23-.27-2.47-.54-3.7-.82-2.02-1-4.04-2-6.05-2.99-1.68-.84-2.3-2.44-2.89-4.06.91-.69,1.63-1.48,1.54-2.73,2.64,1.93,5.03,4.36,8.62,4.42,0,0,.17.21.17.21,0,0,.2-.18.2-.18,1.81.11,3.61.22,5.42.34.22.46.45.93.67,1.39,0,.44.02.89.03,1.33-1.63.65-3.1,1.5-4,3.09Z"/>
  <path class="cls-1" d="M76.95,27.01c-4.73,4.83-10.31,5.83-16.58,3.69,1.03-.46,1.4-1.26,1.16-2.34.12-.42.23-.85.35-1.28,0,0,.27-.06.27-.06.32.07.57-.03.75-.3,2.14-.1,4.27-.19,6.41-.29,0,0,.18.17.18.17l.09-.23c1.63-.8,3.26-1.59,4.9-2.39,1.54.43,3.12.83,2.5,3.04Z"/>
  <path class="cls-1" d="M86.12,12.78c-1.22,14.56-4.44,6.93-6-3.35-.32-1.78-.27-3.55.16-5.3,2.82,2.16,4.14,5.58,5.84,8.65Z"/>
  <path class="cls-1" d="M14.03,21.44c-.02-3.3-.05-6.61-.07-9.91.75-1.87,2.22-6.72,4.82-7.38.02,1.58.04,3.17.06,4.75-2.3,4.02-1.76,8.67-2.84,12.96-.65-.14-1.31-.28-1.96-.42Z"/>
  <path class="cls-2" d="M15.99,21.87c1.08-4.29.54-8.94,2.84-12.96-.48,4.92,2.03,8.97,3.79,13.24.09,1.25-.63,2.04-1.54,2.73-1.7-1-3.39-2.01-5.09-3.01Z"/>
  <path class="cls-2" d="M33.73,32.75c.9-1.58,2.37-2.44,4-3.09.77,2.77,1.55,5.53,2.32,8.3-1.14,2.19-1.69.51-2.04-.41-.83-2.18-2.01-3.95-4.28-4.8Z"/>
  <path class="cls-3" d="M31.2,90.11c-.05-1.08-.11-2.16-.16-3.24.67,1.05.67,2.13.16,3.24Z"/>
  <path class="cls-2" d="M37.7,28.33c-.22-.46-.45-.93-.67-1.39,1.1.04.99.67.67,1.39Z"/>
  <path class="cls-3" d="M61.88,27.08c-.12.43-.23.86-.35,1.28.12-.43.23-.85.35-1.28Z"/>
  <path class="cls-3" d="M93.51,33.2c-.12-.45-.24-.9-.36-1.35.12.45.24.9.36,1.35Z"/>
  <path class="cls-2" d="M31.62,26.6l-.2.18s-.18-.21-.17-.21.2-.21.2-.21l.17.23Z"/>
  <path class="cls-2" d="M62.89,26.71c-.18.27-.43.37-.75.3.25-.1.5-.2.75-.3Z"/>
  <path class="cls-3" d="M79.23,83.24c.17-.5.35-.99.52-1.49-.17.5-.35.99-.52,1.49Z"/>
  <polygon class="cls-2" points="69.56 26.36 69.47 26.59 69.3 26.42 69.38 26.2 69.56 26.36"/>
  <path class="cls-3" d="M31.34,93.12c-.02-.41-.05-.82-.07-1.23.02.41.05.82.07,1.23Z"/>
  <path class="cls-3" d="M31.89,97.89c-.23-.24-.27-.5-.11-.79.11.26.15.52.11.79Z"/>
  <path class="cls-1" d="M72.03,71.91c.22,1.2.45,2.4.67,3.59,1.69-.41,1.26-2.1,1.91-3.14,2.19-.38,2.54,1.01,2.58,2.69-.39,1.42-.78,2.85-1.16,4.27-3.82,1.04-1.22,2.91-4.65-.3-1.7-1.59-3.21-9.62.65-7.12Z"/>
  <path class="cls-1" d="M18.75,51c.98,1.1,1.95,2.2,2.93,3.3-1.14,2.56-2.34,4.99-5.81,2.9-1.93-2.29-6.04-3.14-4.89-7.45,1.55.88,3.01,2.48,4.91.63.69.09,1.39.19,2.09.28.15.31.4.42.77.33Z"/>
  <path class="cls-1" d="M24.31,72.55c.68.93.39,3.39,2.72,1.74-.38.73-.41,1.35.5,1.71.05.61.11,1.22.16,1.82-.08.41-.16.82-.25,1.22-.13.65-.26,1.3-.39,1.94-5.12,2.1-3.4-2.84-4.46-4.63-.75-1.26-2.24-4.11,1.72-3.81Z"/>
  <path class="cls-1" d="M78.43,52.23c.98-1.2,2.37-1.37,3.77-1.53,2.09,1.16,3.91.13,5.75-.69.56,5.2-3.79,5.57-6.97,7.09-.02-2.06-1.17-3.53-2.55-4.88Z"/>
  <path class="cls-2" d="M27.52,76c-.91-.35-.88-.98-.5-1.71.36-5.53.46-11.1,2.99-16.23-.07,6.09.18,12.22-2.5,17.94Z"/>
  <path class="cls-2" d="M25.77,35.04c-.9-.63-1.8-1.26-2.71-1.9.3-1.4.61-2.81.91-4.21,2.02,1,4.04,2,6.05,2.99-1.16,1.39-2.29,2.83-4.26,3.11Z"/>
  <path class="cls-2" d="M32.8,59.85c-1.97-1.42.32-7.16,2.38-7.54,1.8-.33-1.66,7.04-2.38,7.54Z"/>
  <path class="cls-2" d="M27.44,79.05c.08-.41.17-.82.25-1.22-.08.41-.16.82-.25,1.22Z"/>
  <path class="cls-2" d="M78.43,52.23c1.38,1.35,2.54,2.82,2.55,4.88-4.63,3.73-4.56,8.56-3.24,13.7.37,1.46.47,2.93-.55,4.24-.04-1.68-.4-3.06-2.58-2.69-1.01-6.28.42-12.34,1.75-18.4.21-.98.89-1.73,2.06-1.73Z"/>
  <path class="cls-3" d="M23.98,28.93c-.3,1.4-.61,2.81-.91,4.21-3.73-2.99-4.72-6.61-8.07-2.14-2.24,2.99-1.14,11.68-1.24,15.15-2.74-.64-2.92-2.8-2.95-5.01-.09-6.76.07-13.47,3.23-19.7.65.14,1.31.28,1.96.42,1.7,1,3.39,2.01,5.09,3.01.59,1.62,1.21,3.22,2.89,4.06Z"/>
  <path class="cls-2" d="M18.75,51c-.36.09-.62-.02-.77-.33.26.11.51.22.77.33Z"/>
</svg>

<svg width="97" height="121" viewBox="0 0 97 121" fill="none" xmlns="http://www.w3.org/2000/svg">
<path d="M79.23 83.24C77.83 94.06 75.68 104.64 68.83 113.58C68.08 114.56 67.29 116.42 65.92 115.82C64.38 115.15 65.66 113.45 65.8 112.25C67.81 94.99 69.34 77.78 62.44 61.11C63.89 58.74 64.05 56.23 63.31 53.59C62.47 50.55 63.32 48.77 66.84 49.14C68.53 56.73 72.95 63.71 72.03 71.9C68.17 69.4 69.68 77.43 71.38 79.02C74.81 82.23 72.21 80.35 76.03 79.32C77.28 79.66 78.52 80 79.77 80.34C79.77 80.81 79.77 81.28 79.76 81.75C79.59 82.25 79.41 82.74 79.24 83.24H79.23Z" fill="white"/>
<path d="M31.34 93.12C31.48 94.45 31.63 95.77 31.77 97.1C31.61 97.39 31.65 97.65 31.88 97.89C32.52 103.65 34.22 110.22 33.28 115.97C19.32 107.67 18.24 77.23 15.11 63.06C15.36 61.11 15.62 59.16 15.87 57.2C19.34 59.29 20.54 56.86 21.68 54.3C25.29 59.99 24.76 66.27 24.3 72.55C20.34 72.25 21.83 75.1 22.58 76.36C23.64 78.15 21.92 83.09 27.04 80.99C28.34 82.05 29.64 83.11 30.94 84.17C30.97 85.07 31 85.97 31.03 86.87C31.08 87.95 31.14 89.03 31.19 90.11C31.21 90.71 31.24 91.3 31.26 91.9C31.28 92.31 31.31 92.72 31.33 93.13L31.34 93.12Z" fill="white"/>
<path d="M74.46 23.97C77.93 19.74 79.55 14.79 80.12 9.42999C81.68 19.71 84.9 27.34 86.12 12.78C90.38 18.43 92.23 24.97 93.16 31.85C93.28 32.3 93.4 32.75 93.52 33.2C93.56 34.41 93.6 35.62 93.64 36.83C90.35 40.62 91.05 46.13 87.96 50.01C86.11 50.83 84.29 51.86 82.21 50.69C87.84 47.89 86.53 22.99 78.9 30.69L76.96 27C77.58 24.79 76 24.39 74.46 23.96V23.97Z" fill="white"/>
<path d="M30.95 84.17C29.65 83.11 28.35 82.05 27.05 80.99C27.18 80.34 27.31 79.69 27.44 79.05C27.52 78.64 27.6 78.24 27.69 77.83C27.64 77.22 27.58 76.61 27.53 76C30.21 70.28 29.96 64.15 30.03 58.06C30.81 55.21 31.6 52.36 32.38 49.51C34.42 42.04 32.43 37.67 25.78 35.04C27.75 34.75 28.88 33.32 30.04 31.93C31.27 32.2 32.51 32.47 33.74 32.75C36.01 33.6 37.19 35.38 38.02 37.55C38.37 38.47 38.92 40.15 40.06 37.96C41.85 43.59 41.05 49.06 39.34 54.57C36.29 64.36 31.63 73.7 30.96 84.17H30.95ZM32.8 59.85C33.52 59.35 36.98 51.97 35.18 52.31C33.12 52.69 30.82 58.43 32.8 59.85Z" fill="white"/>
<path d="M76.95 27.01C77.6 28.24 78.24 29.47 78.89 30.71C76.83 35.8 71.12 33.71 68.36 37.49C66.04 40.67 66.87 45.52 66.84 49.15C63.33 48.78 62.47 50.57 63.31 53.6C64.05 56.25 63.88 58.75 62.44 61.12C56.5 51.34 57.83 41.06 60.37 30.7C66.65 32.84 72.23 31.85 76.95 27.01Z" fill="white"/>
<path d="M87.95 50.02C91.04 46.14 90.34 40.63 93.63 36.84C94.33 43.82 94.52 56.4 89.95 61.22C88.49 62.76 86.67 60.61 84.29 63.63C81.54 67.1 80.93 76.03 79.77 80.34C78.52 80 77.28 79.66 76.03 79.32C76.42 77.9 76.81 76.47 77.19 75.05C78.21 73.75 78.11 72.27 77.74 70.81C76.42 65.67 76.34 60.84 80.98 57.11C84.17 55.59 88.51 55.22 87.95 50.02Z" fill="white"/>
<path d="M5.87 34.08C6.11 25.68 9.4 18.39 13.96 11.54C13.98 14.84 14.01 18.14 14.03 21.45C10.87 27.67 10.71 34.39 10.8 41.15C10.83 43.36 11.01 45.53 13.75 46.16C14.46 47.57 15.17 48.98 15.89 50.39C13.99 52.24 12.53 50.64 10.98 49.76C8.11 47.36 9.13 44.05 9.08 41.06C9.03 38.17 8.94 35.49 5.86 34.08H5.87Z" fill="white"/>
<path d="M5.87 34.08C8.95 35.49 9.05001 38.17 9.09001 41.06C9.14001 44.05 8.12001 47.36 10.99 49.76C9.84001 54.07 13.96 54.92 15.88 57.21C15.63 59.16 15.37 61.11 15.12 63.07C12.36 60.02 9.52 61.83 7.52 59.18C4.00001 54.5 4.71001 39.47 5.88001 34.09L5.87 34.08Z" fill="white"/>
<path d="M33.73 32.75C32.5 32.48 31.26 32.21 30.03 31.93C28.01 30.93 25.99 29.93 23.98 28.94C22.3 28.1 21.68 26.5 21.09 24.88C22 24.19 22.72 23.4 22.63 22.15C25.27 24.08 27.66 26.51 31.25 26.57L31.42 26.78L31.62 26.6C33.43 26.71 35.23 26.82 37.04 26.94C37.26 27.4 37.49 27.87 37.71 28.33C37.71 28.77 37.73 29.22 37.74 29.66C36.11 30.31 34.64 31.16 33.74 32.75H33.73Z" fill="white"/>
<path d="M76.95 27.01C72.22 31.84 66.64 32.84 60.37 30.7C61.4 30.24 61.77 29.44 61.53 28.36C61.65 27.94 61.76 27.51 61.88 27.08L62.15 27.02C62.47 27.09 62.72 26.99 62.9 26.72C65.04 26.62 67.17 26.53 69.31 26.43L69.49 26.6L69.58 26.37C71.21 25.57 72.84 24.78 74.48 23.98C76.02 24.41 77.6 24.81 76.98 27.02L76.95 27.01Z" fill="white"/>
<path d="M86.12 12.78C84.9 27.34 81.68 19.71 80.12 9.43001C79.8 7.65001 79.85 5.88 80.28 4.13C83.1 6.29 84.42 9.71 86.12 12.78Z" fill="white"/>
<path d="M14.03 21.44C14.01 18.14 13.98 14.83 13.96 11.53C14.71 9.65999 16.18 4.80999 18.78 4.14999C18.8 5.72999 18.82 7.31999 18.84 8.89999C16.54 12.92 17.08 17.57 16 21.86C15.35 21.72 14.69 21.58 14.04 21.44H14.03Z" fill="white"/>
<path d="M15.99 21.87C17.07 17.58 16.53 12.93 18.83 8.91C18.35 13.83 20.86 17.88 22.62 22.15C22.71 23.4 21.99 24.19 21.08 24.88C19.38 23.88 17.69 22.87 15.99 21.87Z" fill="white"/>
<path d="M33.73 32.75C34.63 31.17 36.1 30.31 37.73 29.66C38.5 32.43 39.28 35.19 40.05 37.96C38.91 40.15 38.36 38.47 38.01 37.55C37.18 35.37 36 33.6 33.73 32.75Z" fill="white"/>
<path d="M37.7 28.33C37.48 27.87 37.25 27.4 37.03 26.94C38.13 26.98 38.02 27.61 37.7 28.33Z" fill="white"/>
<path d="M61.88 27.08C61.76 27.51 61.65 27.94 61.53 28.36C61.65 27.93 61.76 27.51 61.88 27.08Z" fill="white"/>
<path d="M31.62 26.6L31.42 26.78C31.42 26.78 31.24 26.57 31.25 26.57C31.26 26.57 31.45 26.36 31.45 26.36L31.62 26.59V26.6Z" fill="white"/>
<path d="M62.89 26.71C62.71 26.98 62.46 27.08 62.14 27.01C62.39 26.91 62.64 26.81 62.89 26.71Z" fill="white"/>
<path d="M69.56 26.36L69.47 26.59L69.3 26.42L69.38 26.2L69.56 26.36Z" fill="white"/>
<path d="M31.89 97.89C31.66 97.65 31.62 97.39 31.78 97.1C31.89 97.36 31.93 97.62 31.89 97.89Z" fill="white"/>
<path d="M72.03 71.91C72.25 73.11 72.48 74.31 72.7 75.5C74.39 75.09 73.96 73.4 74.61 72.36C76.8 71.98 77.15 73.37 77.19 75.05C76.8 76.47 76.41 77.9 76.03 79.32C72.21 80.36 74.81 82.23 71.38 79.02C69.68 77.43 68.17 69.4 72.03 71.9V71.91Z" fill="white"/>
<path d="M18.75 51C19.73 52.1 20.7 53.2 21.68 54.3C20.54 56.86 19.34 59.29 15.87 57.2C13.94 54.91 9.82999 54.06 10.98 49.75C12.53 50.63 13.99 52.23 15.89 50.38C16.58 50.47 17.28 50.57 17.98 50.66C18.13 50.97 18.38 51.08 18.75 50.99V51Z" fill="white"/>
<path d="M24.31 72.55C24.99 73.48 24.7 75.94 27.03 74.29C26.65 75.02 26.62 75.64 27.53 76C27.58 76.61 27.64 77.22 27.69 77.82C27.61 78.23 27.53 78.64 27.44 79.04C27.31 79.69 27.18 80.34 27.05 80.98C21.93 83.08 23.65 78.14 22.59 76.35C21.84 75.09 20.35 72.24 24.31 72.54V72.55Z" fill="white"/>
<path d="M78.43 52.23C79.41 51.03 80.8 50.86 82.2 50.7C84.29 51.86 86.11 50.83 87.95 50.01C88.51 55.21 84.16 55.58 80.98 57.1C80.96 55.04 79.81 53.57 78.43 52.22V52.23Z" fill="white"/>
<path d="M27.52 76C26.61 75.65 26.64 75.02 27.02 74.29C27.38 68.76 27.48 63.19 30.01 58.06C29.94 64.15 30.19 70.28 27.51 76H27.52Z" fill="white"/>
<path d="M25.77 35.04C24.87 34.41 23.97 33.78 23.06 33.14C23.36 31.74 23.67 30.33 23.97 28.93C25.99 29.93 28.01 30.93 30.02 31.92C28.86 33.31 27.73 34.75 25.76 35.03L25.77 35.04Z" fill="white"/>
<path d="M32.8 59.85C30.83 58.43 33.12 52.69 35.18 52.31C36.98 51.98 33.52 59.35 32.8 59.85Z" fill="white"/>
<path d="M27.44 79.05C27.52 78.64 27.61 78.23 27.69 77.83C27.61 78.24 27.53 78.65 27.44 79.05Z" fill="white"/>
<path d="M78.43 52.23C79.81 53.58 80.97 55.05 80.98 57.11C76.35 60.84 76.42 65.67 77.74 70.81C78.11 72.27 78.21 73.74 77.19 75.05C77.15 73.37 76.79 71.99 74.61 72.36C73.6 66.08 75.03 60.02 76.36 53.96C76.57 52.98 77.25 52.23 78.42 52.23H78.43Z" fill="white"/>
<path d="M23.98 28.93C23.68 30.33 23.37 31.74 23.07 33.14C19.34 30.15 18.35 26.53 15 31C12.76 33.99 13.86 42.68 13.76 46.15C11.02 45.51 10.84 43.35 10.81 41.14C10.72 34.38 10.88 27.67 14.04 21.44C14.69 21.58 15.35 21.72 16 21.86C17.7 22.86 19.39 23.87 21.09 24.87C21.68 26.49 22.3 28.09 23.98 28.93Z" fill="white"/>
<path d="M18.75 51C18.39 51.09 18.13 50.98 17.98 50.67C18.24 50.78 18.49 50.89 18.75 51Z" fill="white"/>
<path d="M13.5 46L11.5 44.5L10.5 39.5V35.5L11.5 28L14.5 21" stroke="white"/>
<path d="M23 22.5L20.5 25.5" stroke="white"/>
<path d="M26 35L28.5 34L30 32" stroke="white"/>
<path d="M78.5 30.5L77 26.5L73.5 30.5L66.5 32" stroke="white"/>
<path d="M75 24L77 25" stroke="white"/>
<path d="M88 51.5L87 54L85.5 55.5L81.5 57" stroke="white"/>
<path d="M78.5 52.5L80.5 54.5" stroke="white"/>
<path d="M78 74L76.5 76.5V80.5" stroke="white"/>
<path d="M30 58.5V66L29 72L27.5 76" stroke="white"/>
<path d="M21.5 74L23 78.5L24 82L27 81L30 84" stroke="white"/>
</svg>
